X: 1
T: Twin Sisters (Country Dance)
B: Maud Karpeles Manuscript Collection (MK/1/1/4632E) 1929 p.51
N: "Played by Mrs Nancy J. Masters at Weld, Me., Aug 10th / 29"
R: reel
Z: 2013 John Chambers <jc:trillian.mit.edu>
M: C|
L: 1/8
K: G
[|\
G2BG ABcA | B2g2 d4 | cBAc BAG2 | ABAG F2D2 |\
G2BG ABcA | B2g2 d4 | cBAc BAG2 | AGFA G4 |]
[|\
g3g f2d2 | efge d4 | efge dBGB | ABAG F2D2 |\
g3g f2d2 | efge d4 | cBAc BAG2 | AGFA G4 |]
